X:1
T:Mrs. Colonel Forbes
T:Mrs. Colonel Forbes
T:William Marshall
C:William Marshall
L:1/8
Q:1/8=128
M:4/4
K:C
V:1 treble 
V:1
|: e | c2 G>E Dd d>B | c<G AG c2 ce | c>G A/G/F/E/ Dd d>e | C<C E>G c2 ce | c2 G>E Dd d>B | %6
 c<G AG c2 ce | c>G A/G/F/E/ Dd d>e | C<C E>G c2 ce | c>g e>g a/g/f/e/ d>e | c<g e<g c<g e<g | %11
 f<a e<g d>c d<e | G<c c>d e2 de | c>g e>g a/g/f/e/ d>e | c<g e<g c<g e<g | g<c' e<g d>c d<e | %16
 G<c c>d e2 c :| %17

